X:659
T: ICH UND MEIN ALLERLIEBSTER HANS
N: E0609
O: Europa, Mitteleuropa, Deutschland; Frankreich, Elsass
R: Liebes - Lied
M: 3/4
L: 1/16
K: A
E2F2G2 | A4A4e2e2 | c4z2
A2G2F2 | E4G2B2d2G2 | A4z2
E2F2G2 | A4A4e2e2 | c4z2
A2G2F2 | E4G2B2d2G2 | A4z4
c3c | c4c2B2A2G2 | F4z2
F2G2A2 | B2e2B2A2G2F2 | E4z2
E2F2G2 | A2c2c2B2A2G2 | F4z2
A2G2F2 | E4G2B2d2G2 | A4z2

@@@ Tune index: 4309
